X:21
T:Non jamais. [FJ21]
S:Festin joyeux.  Music page 11.
Z:transcribed by Eric Conrad, 2021.
N:NB The meter is given simply as "3"
N:NB In the MS, the G is the bottom line of the staff
N:NB There are no repeats in the MS.  There are two parts.
N:NB The plus signs seem to indicate some kind of roll or trill.
M:3/4
L:1/4
% K:Am clef=treble1 % MS has G on line 1
K:Am % no sharps or flats, ending on A
ea2 | e>fg | fe^d | e2e | ea2 |
e>fg | fe^d | e3 || e"^+"d2 | c>de | dcB |
"^+"A2A | e"^+"d2 | c>de | dcB | A3 |]

